X: 1271
T: An Eala Bhàn
R: jig
M: 6/8
K: Aminor
F2 F G2 A|d2 c A2 G|F2 D C2 C|D3- D3|
d2 d f2 e|d2 c c2 A|G2 F G2 G|A3- A3|
GAc- cd2|d f2 e d2|c A2 G/ F/G2|G A2- A3|
C D2 F G2|A d2 c A2|G F2 D C2|C D2-D3||

